X:79
T:Springtime in Battersea
C:Tommy Williams
Z:Anahata
D:Eponymous Free Reed album of interview and music from Tommy Williams
M:3/4
K:C
"intro (then play ABACAB)"
GA | B6 | A4 G2 | B6 | A4 G2 | (3GAG ^F2 G2 | e4 d2 | c6- | c4 ||
P:A
CD | E4 G2 | E4 G2 | E6- | E2D2E2 | F4 A2 | F4 A2 | F6- | F2 G2 A2 |
B4 f2 | B4 f2 | B6- | B2 A2 B2 | c4 e2 | c4 A2 | G6- | G4 CD |
| E4 G2 | E4 G2 | E6- | E2D2E2 | F4 A2 | F4 A2 | F6- | F2 G2 A2 |
B4 f2 | B4 f2 | B6- | B2 A2 B2 | c4 e2 | c4 e2 | c6- | c6 ||
P:B
c6 | B6 | d6 | c6 | c2 e2 f2 | A4 f2 | A6- | A2 G2 A2 |
B6 | A4 G2 | F6- | F2 E2 F2 | A6 | G6 | E6- | E4 G2 |
c6 | B6 | d6 | c6 | c2 e2 f2 | A4 f2 | A6- | A2 G2 A2 |
B4 B2 | A4 G2 | B6 | A4 G2 | (3GAG ^F2 G2 | e4 d2 | c6- | c4 ||
P:C
K:G
D2 | (3GAG D2B2 | (3GAG D2 B2 | A2 z2 F2 | D6 | D2 F2 A2 | d3c BA |\
B2 G2 E2 | D4 D2 | 
(3GAG D2B2 | (3GAG D2 B2 | A2 z2 F2 | D6 | D2 F2 A2 | d3c BA |\
G2 B2 A2 | G4 :|

